X:176
T: Die Mordeltern
N: Q0085R
O: Osteuropa, UdSSR, Russland, Wolga
R: Ballade, Habgier, Mord, Reue, Selbstmord
M: none
L: 1/16
K: D
A2F2A2 | D6E2A2B2 | A4z2
D2G2A2 | B2d2=c2B2 | A4G2A2 | E6z2
A6d2 | B2=c2B2A2 | GFE2D4
A6d2 | B2=c2B2A2 | GFE2D4

